suite-common/icons/assets/icons/file.svg

<svg xmlns="http://www.w3.org/2000/svg" fill="none" viewBox="0 0 24 24">
  <path d="m5.84 2.037-1.02.023-.272.129c-.322.153-.69.489-.844.771-.096.177-.113.264-.145.77-.047.723-.048 16.156-.002 16.677.044.489.182.769.547 1.11.325.305.578.404 1.136.446.548.042 12.972.042 13.52 0 .558-.042.811-.141 1.136-.446.349-.326.499-.618.546-1.067.02-.197.037-3.008.037-6.412l.001-6.062-.124-.198c-.178-.285-5.401-5.494-5.656-5.642l-.2-.116-3.82-.003c-2.101-.002-4.279.007-4.84.02m7.448 4.233c.01 1.755.025 2.297.065 2.39.071.163.231.326.447.454l.18.106 2.27.014 2.27.013V20H5.48V4h7.796zm3.752.96c0 .039-.203.05-.9.05h-.9V5.381l.9.899c.495.495.9.922.9.95"/>
</svg>

<svg xmlns="http://www.w3.org/2000/svg" fill="none" viewBox="0 0 24 24"><path d="M5.840 2.037 L 4.820 2.060 4.548 2.189 C 4.226 2.342,3.858 2.678,3.704 2.960 C 3.608 3.137,3.591 3.224,3.559 3.730 C 3.512 4.453,3.511 19.886,3.557 20.407 C 3.601 20.896,3.739 21.176,4.104 21.517 C 4.429 21.822,4.682 21.921,5.240 21.963 C 5.788 22.005,18.212 22.005,18.760 21.963 C 19.318 21.921,19.571 21.822,19.896 21.517 C 20.245 21.191,20.395 20.899,20.442 20.450 C 20.462 20.253,20.479 17.442,20.479 14.038 L 20.480 7.976 20.356 7.778 C 20.178 7.493,14.955 2.284,14.700 2.136 L 14.500 2.020 10.680 2.017 C 8.579 2.015,6.401 2.024,5.840 2.037 M13.288 6.270 C 13.298 8.025,13.313 8.567,13.353 8.660 C 13.424 8.823,13.584 8.986,13.800 9.114 L 13.980 9.220 16.250 9.234 L 18.520 9.247 18.520 14.624 L 18.520 20.000 12.000 20.000 L 5.480 20.000 5.480 12.000 L 5.480 4.000 9.378 4.000 L 13.276 4.000 13.288 6.270 M17.040 7.230 C 17.040 7.269,16.837 7.280,16.140 7.280 L 15.240 7.280 15.240 6.330 L 15.240 5.381 16.140 6.280 C 16.635 6.775,17.040 7.202,17.040 7.230 " stroke="none" fill-rule="evenodd"></path></svg>
